X:1
T:Title
%%score { 1 | 2 }
L:1/8
M:4/4
K:D
V:1 treble nm="Grand Piano"
V:2 bass 
V:1
 z4 z2[Q:1/4=96] DE | FFFG [GB][FA]DE | FFFG F2 [FA][FA] | BBBB [^GB][GB][Gc][Gd] | %4
 dccB c2 [GB][Gc] | [Ge][Fd][Gd][GB] [FA]FGA | cBB^A B2 dd | edBG A2 F2 | [CE]4 D2 z2 | %9
 [FA]>[GB] [FA]F D2 A2 | G>F GB d2 [Ac][GB] | [Ad]>A AB A2 F2 | [DF]4 [CE]2 [CE][DF] | %13
 [EG][FA][Ac][GB] [FA]2 [EG][CE] | [DF][FA][Gd][GB] [FA]2 [Fd][Fd] | edBG A2 F2 | %16
[M:8/4] [CE]4 .D4 z8 |] %17
V:2
 z4 z2 [D,F,][D,G,C] | [D,A,D][D,A,D][D,A,D][D,B,D] [D,D][D,D][D,F,][D,G,C] | %2
 [D,A,D][D,A,D][D,A,D][D,B,D] [D,A,D]2 [D,D][D,D] | %3
 [G,DG][G,DG][G,DG][G,DG][K:bass] [E,D][E,D][E,C][E,B,] | %4
 [A,F][A,E][A,E][A,G] [A,G]2[K:bass] [A,,A,][A,,A,] | %5
 [D,A,][D,A,][D,B,][D,C] [D,D][D,A,D][E,A,C][F,A,D] | %6
 [G,D][G,B,D][G,DG][G,CG] [G,DG]2 [G,B,G][G,B,G] | %7
 [G,B,G][G,B,G][G,DG][K:bass][G,B,] [F,A,D]2 [D,A,D]2 | [A,,G,]4 [D,F,]2 z2 | %9
 [D,D]>[D,D] [D,D][D,A,D] [D,F,]2 [D,=CD]2 | %10
 [G,B,D]>[G,A,D] [G,B,D][G,DG] [G,B,G]2[K:bass] [G,C][G,D] | %11
 [F,D]>[F,D] [F,D][G,D] [F,D]2 [D,A,D]2 | [A,,A,]4 [A,,A,]2 [A,,A,][A,,A,] | %13
 [A,,A,][A,,A,][A,,A,][A,,A,] [A,,A,]2 [A,,A,][A,,A,] | %14
 [D,A,][D,A,][D,B,][D,C] [D,D]2 [D,A,][D,A,] | %15
 [G,B,G][G,B,G][G,DG][K:bass][G,B,] [F,A,D]2 [D,A,D]2 |[M:8/4] [A,,G,]4 .[D,F,]4 z8 |] %17

